X: 1
T:Jimmy Young  "CYMRU"
M:C|
L:1/8
Q:80
C:P/M D.S. Ramsay
S:March
K:HP
|: {gef}e|
{g}A3/4{d}c/4{g}c/4e3/4{gef}e3/4A/4{g}c/4{d}A3/4|
{g}f3/4d/4{g}f/4a3/4{ef}e{g}f/4a3/4|  !
A3/4{d}c/4{g}c/4e3/4{gef}e3/4A/4{g}c/4{d}A3/4|
{GdG}d3/4e/4{g}c/4d3/4{gBG}B{gcd}c3/4B/4:|2 |
{g}A3/4{d}c/4{g}c/4e3/4{gef}e3/4A/4{g}c/4{d}A3/4|  !
{g}f3/4d/4{g}f/4a3/4{ef}e{g}c3/4d/4|
{g}e3/4A/4{d}c/4a3/4{de}d3/4c/4{g}B/4{d}c3/4|
{g}A2{GAG}A:| |:  !
{g}c3/4d/4|
{g}e3/4a/4g/4a3/4A3/4e/4{g}c/4d3/4|
{g}e3/4a/4d/4f3/4{gef}e{g}c3/4d/4|  !
{g}e3/4a/4g/4a3/4A3/4e/4{g}c3/4e/4|
{Gdc}d3/4e/4{g}c/4d3/4{gBG}B|1 {g}c3/4d/4|1 |
{g}e3/4a/4g/4a3/4A3/4e/4{g}c3/4d/4|  !
{g}e3/4a/4d/4f3/4{gef}e{g}c3/4d/4|
{g}e3/4A/4{d}c/4a3/4{de}d3/4c/4{g}B/4{d}c3/4|
{g}A2{GAG}A:| |:  !
{g}e/4a3/4|
{AGAG}A{g}A3/4{d}c/4{g}A3/4{d}c/4{g}c/4e3/4|
{g}d3/4A/4{g}d/4f3/4{gef}e{g}f/4a3/4|  !
{AGAG}A{g}A3/4{d}c/4{g}A3/4{d}c/4{g}c/4e3/4|
{Gdc}d3/4e/4{g}c/4d3/4{gBG}B{gcd}c3/4B/4| |
{g}A3/4c/4{g}B/4{d}A3/4{g}A3/4{d}c/4{g}c/4e3/4|  !
{g}d3/4A/4d/4f3/4{gef}e{g}c3/4d/4|
{g}e3/4A/4{d}c/4a3/4{de}d3/4c/4{g}B/4{d}c3/4|
{g}A2{GAG}A:| |:  !
{gf}g|
a3/4g/4a3/4g/4{a}g3/4f/4{g}f/4e3/4|
{g}f3/4d/4{g}f/4a3/4{ef}e{gf}g|  !
{a}f3/4e/4{g}e3/4d/4{g}d3/4c/4{g}c/4{d}A3/4|
{Gdc}d3/4e/4{g}c/4d3/4{gBG}B|1 {gf}g|1 |
a3/4g/4a3/4g/4{a}g3/4f/4{g}f/4e3/4|  !
{g}f3/4d/4{g}f/4a3/4{ef}e{g}c3/4d/4|
{g}e3/4A/4{d}c/4a3/4{de}d3/4c/4{g}B/4{d}c3/4|
{g}A2{GAG}A:|  !
{gcd}c3/4B/4|
{g}A3/4{d}c/4{g}B/4{d}A3/4{g}A3/4{d}c/4{g}c/4e3/4|
{g}d3/4A/4{g}d/4f3/4{gef}e{g}c3/4d/4|  !
{g}e3/4A/4{d}c/4a3/4{de}d3/4c/4{g}B/4{d}c3/4|
{g}A2{GAG}A|]
